X: 7478
T: Cnocán An Teampaill
R: jig
M: 6/8
K: Dmixolydian
cAG A2A|ABG A2d|cAG A3|GEA GED|
cAG A2A|ABG A2d|cAG A2A|GEA GED||
EDE c2E|c2E GED|EDE c2e|dcA GED|
EDE c2E|c2E GED|EDE cde|dcA GED||

